X:1788
T:Bonaparte's Advance
T:Gluaisead Buonapart
C:"collected by J.O'Neill
S:1788 O'Neill's Music of Ireland
B:O'Neill's 1788
Z:Transcribed by Robert Thorpe (thorpe@skep.com)
Z:ABCMUS 1.0
M:C|
K:A
e-d|c2 c-B cecA|d2 d-c dfdB|Aceg agaf|e2 e-f edcB|
c2 c-B cecA|dcde fgaf|ecAc dBGB|A2 A2 A2:|
|:c-B|Aceg agaf|e2 d-f edcB|Aceg agaf|e2 ef edcB|
ceAe ceAe|dfBf dfBf|ceAe ceAe|GBEB GBEB|
ceAe ceAe|dcde fgaf|ecAc dBGB|A2 A2 A2:|


